svgs/duotone/square-plus.svg

<svg xmlns="http://www.w3.org/2000/svg" viewBox="0 0 448 512"><!--! Font Awesome Pro 6.4.0 by @fontawesome - https://fontawesome.com License - https://fontawesome.com/license (Commercial License) Copyright 2023 Fonticons, Inc. --><defs><style>.fa-secondary{opacity:.4}</style></defs><path class="fa-primary" d="M200 280v64c0 13.3 10.7 24 24 24s24-10.7 24-24V280h64c13.3 0 24-10.7 24-24s-10.7-24-24-24H248V168c0-13.3-10.7-24-24-24s-24 10.7-24 24v64H136c-13.3 0-24 10.7-24 24s10.7 24 24 24h64z"/><path class="fa-secondary" d="M64 32C28.7 32 0 60.7 0 96V416c0 35.3 28.7 64 64 64H384c35.3 0 64-28.7 64-64V96c0-35.3-28.7-64-64-64H64zM200 344V280H136c-13.3 0-24-10.7-24-24s10.7-24 24-24h64V168c0-13.3 10.7-24 24-24s24 10.7 24 24v64h64c13.3 0 24 10.7 24 24s-10.7 24-24 24H248v64c0 13.3-10.7 24-24 24s-24-10.7-24-24z"/></svg>

<svg xmlns="http://www.w3.org/2000/svg" viewBox="0 0 448 512"><!--! Font Awesome Pro 6.3.0 by @fontawesome - https://fontawesome.com License - https://fontawesome.com/license (Commercial License) Copyright 2023 Fonticons, Inc. --><defs><style>.fa-secondary{opacity:.4}</style></defs><path class="fa-primary" d="M136 280C122.7 280 112 269.3 112 256C112 242.7 122.7 232 136 232H200V168C200 154.7 210.7 144 224 144C237.3 144 248 154.7 248 168V232H312C325.3 232 336 242.7 336 256C336 269.3 325.3 280 312 280H248V344C248 357.3 237.3 368 224 368C210.7 368 200 357.3 200 344V280H136z"/><path class="fa-secondary" d="M384 32C419.3 32 448 60.65 448 96V416C448 451.3 419.3 480 384 480H64C28.65 480 0 451.3 0 416V96C0 60.65 28.65 32 64 32H384zM224 368C237.3 368 248 357.3 248 344V280H312C325.3 280 336 269.3 336 256C336 242.7 325.3 232 312 232H248V168C248 154.7 237.3 144 224 144C210.7 144 200 154.7 200 168V232H136C122.7 232 112 242.7 112 256C112 269.3 122.7 280 136 280H200V344C200 357.3 210.7 368 224 368z"/></svg>
